48x48/apps/jblue.svg

<svg xmlns="http://www.w3.org/2000/svg" width="48" height="48" version="1">
 <path style="opacity:0.2" d="m 21.013129,5.0000001 v 5.9987809 h 2.30136 c 1.148282,0 2.231624,0.178233 2.457517,0.404213 0.299765,0.299887 0.238139,4.048196 0.238139,13.382044 0,15.627395 0.284639,15.217744 -4.610528,15.207846 -4.183732,-0.0084 -5.016118,-1.077794 -2.972148,-3.341117 2.118877,-2.346284 2.091473,-4.750305 -0.07808,-6.787682 -1.24577,-1.169867 -2.783108,-1.764465 -4.392841,-1.868761 -2.042946,-0.132365 -4.6022363,0.549379 -6.4303651,2.114804 -1.4210806,1.216872 -2.3565876,2.730253 -2.503505,4.364401 -0.1983393,2.206106 0.912716,4.632308 3.0032066,6.84621 3.5452025,3.880341 6.4614185,3.540766 13.4908445,3.671129 5.425565,0.09653 11.950087,-0.577392 14.854412,-6.891177 0.718591,-1.55712 0.538595,-2.042934 0.632439,-13.737441 0.109895,-13.694416 0.161432,-13.364469 3.009922,-13.364469 0.690152,0 1.193211,0.0221 1.571327,0 H 43 V 5.0000001 H 42.670119 31.766474 Z"/>
 <path style="fill:#31b5ef" d="m 21.013129,3.9999998 v 5.9987805 h 2.30136 c 1.148282,0 2.231624,0.1782337 2.457517,0.4042137 0.299765,0.299887 0.238139,4.048196 0.238139,13.382044 0,15.627395 0.284639,15.217744 -4.610528,15.207846 -4.183732,-0.0084 -5.016118,-1.077794 -2.972148,-3.341117 2.118877,-2.346284 2.091473,-4.750305 -0.07808,-6.787682 -1.24577,-1.169867 -2.783108,-1.764465 -4.392841,-1.868761 -2.042946,-0.132365 -4.6022363,0.549379 -6.4303651,2.114804 -1.4210806,1.216872 -2.3565876,2.730253 -2.503505,4.364401 -0.1983393,2.206106 0.912716,4.632308 3.0032066,6.84621 3.5452025,3.880341 6.4614185,3.540766 13.4908445,3.671129 5.425565,0.09653 11.950087,-0.577392 14.854412,-6.891177 0.718591,-1.55712 0.538595,-2.042934 0.632439,-13.737441 0.109895,-13.6944161 0.161432,-13.3644697 3.009922,-13.3644697 0.690152,0 1.193211,0.0221 1.571327,0 H 43 V 3.9999998 H 42.670119 31.766474 Z"/>
 <path style="fill:#f4f4f7;opacity:0.2" d="M 21.013672 4 L 21.013672 5 L 31.765625 5 L 42.669922 5 L 43 5 L 43 4 L 42.669922 4 L 31.765625 4 L 21.013672 4 z M 13.167969 26.984375 C 11.284496 27.047593 9.1250033 27.739628 7.5253906 29.109375 C 6.10431 30.326247 5.1703549 31.840461 5.0234375 33.474609 C 4.9945596 33.795815 5.0017245 34.121969 5.0273438 34.451172 C 5.1811343 32.826094 6.1111827 31.320362 7.5253906 30.109375 C 9.3535194 28.54395 11.914085 27.863729 13.957031 27.996094 C 15.566764 28.10039 17.103839 28.693414 18.349609 29.863281 C 19.266276 30.724101 19.795735 31.651613 19.947266 32.611328 C 20.096777 31.296344 19.580986 30.019638 18.349609 28.863281 C 17.103839 27.693414 15.566764 27.10039 13.957031 26.996094 C 13.701663 26.979548 13.437036 26.975344 13.167969 26.984375 z M 26.013672 29.001953 C 25.999505 39.30246 25.671494 39.000824 21.400391 38.992188 C 19.14841 38.987666 17.874285 38.673272 17.490234 38.033203 C 16.969375 39.348626 18.190684 39.985743 21.400391 39.992188 C 25.793626 40.001071 26.014498 40.230531 26.013672 29.001953 z"/>
</svg>

<svg xmlns="http://www.w3.org/2000/svg" width="48" height="48" version="1"><path style="opacity:.2" d="M21.013 5v5.999h2.301c1.149 0 2.232.178 2.458.404.3.3.238 4.048.238 13.382 0 15.627.285 15.218-4.61 15.208-4.184-.009-5.017-1.078-2.973-3.341 2.12-2.347 2.092-4.75-.078-6.788-1.245-1.17-2.783-1.764-4.392-1.869-2.043-.132-4.603.55-6.43 2.115-1.422 1.217-2.357 2.73-2.504 4.365-.199 2.206.912 4.632 3.003 6.846 3.545 3.88 6.461 3.54 13.49 3.67 5.426.097 11.95-.577 14.855-6.89.719-1.557.539-2.043.633-13.738.11-13.694.161-13.364 3.01-13.364.69 0 1.193.022 1.57 0H43V5H31.766z"/><path style="fill:#31b5ef" d="M21.013 4v5.999h2.301c1.149 0 2.232.178 2.458.404.3.3.238 4.048.238 13.382 0 15.627.285 15.218-4.61 15.208-4.184-.009-5.017-1.078-2.973-3.341 2.12-2.347 2.092-4.75-.078-6.788-1.245-1.17-2.783-1.764-4.392-1.869-2.043-.132-4.603.55-6.43 2.115-1.422 1.217-2.357 2.73-2.504 4.365-.199 2.206.912 4.632 3.003 6.846 3.545 3.88 6.461 3.54 13.49 3.67 5.426.097 11.95-.577 14.855-6.89.719-1.557.539-2.043.633-13.738C37.114 9.67 37.165 10 40.014 10c.69 0 1.193.022 1.57 0H43V4H31.766z"/><path style="fill:#f4f4f7;opacity:.2" d="M21.014 4v1H43V4H21.014zm-7.846 22.984c-1.884.064-4.043.756-5.643 2.125-1.42 1.217-2.355 2.731-2.502 4.366-.028.32-.021.647.004.976.154-1.625 1.084-3.13 2.498-4.342 1.829-1.565 4.39-2.245 6.432-2.113 1.61.104 3.147.697 4.393 1.867.916.861 1.446 1.789 1.597 2.748.15-1.315-.366-2.591-1.597-3.748-1.246-1.17-2.783-1.763-4.393-1.867a8.056 8.056 0 0 0-.789-.012zm12.846 2.018c-.014 10.3-.343 9.999-4.614 9.99-2.252-.004-3.526-.319-3.91-.959-.52 1.316.7 1.953 3.91 1.96 4.394.008 4.614.238 4.614-10.991z"/></svg>
